images/flag/south_korea.svg

<svg xmlns="http://www.w3.org/2000/svg" width="29" height="29" fill="none">
	<circle cx="14.5009" cy="14.5009" r="14.5009" fill="#fff" transform="matrix(1 0 0 -1 0 29.0017)" />
	<g clip-path="url(#a)">
		<path fill="#0D132F" fill-rule="evenodd"
			d="m23.0914 20.4045-.6679-.4505-1.2613 1.8701.6678.4505 1.2614-1.8701Zm-.9349-.6306-.6679-.4505-1.2614 1.8701.6679.4505 1.2614-1.8701Zm-.9351-.6309-.6679-.4505-1.2614 1.8701.6679.4505 1.2614-1.8701Zm3.3118-.8757-.6679-.4505-1.2613 1.87.6678.4505 1.2614-1.87Zm-.9352-.6306-.6679-.4505-1.2613 1.87.6678.4505 1.2614-1.87Zm-.9351-.6309-.6679-.4505-1.2613 1.87.6678.4505 1.2614-1.87ZM7.17188 22.2747l.66787-.4505-2.70293-4.0072-.66788.4505 2.70294 4.0072Zm.93495-.6308.66788-.4505-1.26137-1.8701-.66788.4505 1.26137 1.8701Zm.9351-.6306.66788-.4505-2.70293-4.0073-.66788.4505 2.70293 4.0073Zm-2.37665-1.5064.66788-.4504-1.26137-1.8701-.66788.4505 1.26137 1.87Zm-2.19653-8.7725.66788.4505 2.70293-4.0073-.66788-.45049-2.70293 4.00729Zm.93502.6306.66787.4505 2.70294-4.00723-.66788-.45049L5.40377 11.365Zm.9351.6306.66788.4505 2.70293-4.00723-.66788-.45049-2.70293 4.00722Zm15.65533.4514.6679-.4505-1.2614-1.8701-.6679.4505 1.2614 1.8701Zm.9349-.6305.6679-.4505-2.703-4.00725-.6678.45049 2.7029 4.00726Zm.9351-.6306.6679-.4505-1.2614-1.87004-.6679.45048 1.2614 1.87006Zm-3.3118-.876.6679-.45053-1.2614-1.87006-.6678.45049 1.2613 1.8701Zm1.8701-1.26124.6679-.45049-1.2614-1.87005-.6679.45049 1.2614 1.87005Z"
			clip-rule="evenodd" />
		<circle cx="14.4996" cy="14.5008" r="4.83363" fill="#E94B35" />
		<path fill="#005AA9" fill-rule="evenodd"
			d="M18.577 17.0974c-1.4026 2.2446-4.3748 2.9174-6.6387 1.5027-2.26392-1.4146-2.96218-4.381-1.5596-6.6255-.70131 1.1222-.3522 2.6054.7798 3.3127 1.1319.7074 2.618.371 3.3193-.7513.7013-1.1223 2.1874-1.4587 3.3194-.7513 1.1319.7073 1.481 2.1905.7798 3.3127 0 0 .7012-1.1222 0 0Z"
			clip-rule="evenodd" />
	</g>
	<defs>
		<clipPath id="a">
			<path fill="#fff" d="M4.34961 6.60596h20.3013v15.7899H4.34961z" />
		</clipPath>
	</defs>
</svg>

<svg width="29" height="29" viewBox="0 0 29 29" fill="none" xmlns="http://www.w3.org/2000/svg">
<circle cx="14.5009" cy="14.5009" r="14.5009" transform="matrix(1 0 0 -1 0 29.0017)" fill="white"/>
<g clip-path="url(#clip0_1_9097)">
<path fill-rule="evenodd" clip-rule="evenodd" d="M23.0914 20.4045L22.4235 19.954L21.1622 21.8241L21.83 22.2746L23.0914 20.4045ZM22.1565 19.7739L21.4886 19.3234L20.2272 21.1935L20.8951 21.644L22.1565 19.7739ZM21.2214 19.143L20.5535 18.6925L19.2921 20.5626L19.96 21.0131L21.2214 19.143ZM24.5332 18.2673L23.8653 17.8168L22.604 19.6868L23.2718 20.1373L24.5332 18.2673ZM23.598 17.6367L22.9301 17.1862L21.6688 19.0562L22.3366 19.5067L23.598 17.6367ZM22.6629 17.0058L21.995 16.5553L20.7337 18.4253L21.4015 18.8758L22.6629 17.0058Z" fill="#0D132F"/>
<path fill-rule="evenodd" clip-rule="evenodd" d="M7.17188 22.2747L7.83975 21.8242L5.13682 17.817L4.46894 18.2675L7.17188 22.2747ZM8.10683 21.6439L8.77471 21.1934L7.51334 19.3233L6.84546 19.7738L8.10683 21.6439ZM9.04193 21.0133L9.70981 20.5628L7.00688 16.5555L6.339 17.006L9.04193 21.0133ZM6.66528 19.5069L7.33316 19.0565L6.07179 17.1864L5.40391 17.6369L6.66528 19.5069Z" fill="#0D132F"/>
<path fill-rule="evenodd" clip-rule="evenodd" d="M4.46875 10.7344L5.13663 11.1849L7.83956 7.1776L7.17168 6.72711L4.46875 10.7344ZM5.40377 11.365L6.07164 11.8155L8.77458 7.80827L8.1067 7.35778L5.40377 11.365ZM6.33887 11.9956L7.00675 12.4461L9.70968 8.43887L9.0418 7.98838L6.33887 11.9956Z" fill="#0D132F"/>
<path fill-rule="evenodd" clip-rule="evenodd" d="M21.9942 12.447L22.6621 11.9965L21.4007 10.1264L20.7328 10.5769L21.9942 12.447ZM22.9291 11.8165L23.597 11.366L20.894 7.35875L20.2262 7.80924L22.9291 11.8165ZM23.8642 11.1859L24.5321 10.7354L23.2707 8.86536L22.6028 9.31584L23.8642 11.1859ZM20.5524 10.3099L21.2203 9.85937L19.9589 7.98931L19.2911 8.4398L20.5524 10.3099ZM22.4225 9.04866L23.0904 8.59817L21.829 6.72812L21.1611 7.17861L22.4225 9.04866Z" fill="#0D132F"/>
<circle cx="14.4996" cy="14.5008" r="4.83363" fill="#E94B35"/>
<path fill-rule="evenodd" clip-rule="evenodd" d="M18.577 17.0974C17.1744 19.342 14.2022 20.0148 11.9383 18.6001C9.67438 17.1855 8.97612 14.2191 10.3787 11.9746C9.67739 13.0968 10.0265 14.58 11.1585 15.2873C12.2904 15.9947 13.7765 15.6583 14.4778 14.536C15.1791 13.4137 16.6652 13.0773 17.7972 13.7847C18.9291 14.492 19.2782 15.9752 18.577 17.0974C18.577 17.0974 19.2782 15.9752 18.577 17.0974Z" fill="#005AA9"/>
</g>
<defs>
<clipPath id="clip0_1_9097">
<rect width="20.3013" height="15.7899" fill="white" transform="translate(4.34961 6.60596)"/>
</clipPath>
</defs>
</svg>
